X:544060
T:Democratic Hornpipe [2]
M:4/4
L:1/8
R:Hornpipe
S:Howe â€“ 1000 Jigs and Reels (c. 1867)Â Â Â Â Â 
Z:AK/Fiddlerâ€™s Companion
K:Bb
(3FGA | B2 Bc BFDF | BcdB edcB | Bdfg fdcd | edcB AcAF | B2 Bc BFDF |
BcdB edcB | Bdfg fcAc | B2B2B2 :: Bd | f2 fg fdgb | g2 ga gfga | b2 fd edcB |
ABcA F2F2 | f2 fg fdfb | g2 ga gfga | b2 fd ecAc | B2B2B2 :|

